X:1
T: Major Mole
C:
R:Strathspey
Q: 128
K:Am
M:4/4
L:1/16
|:Ae3 e3d c3d B3c|Ae3 e3d c4 Bc3|Ae3 e3^f g3f g3e|d3B G3B e3d c3B|
Ae3 e3d c3d B3c|Ae3 e3d c4 Bc3|Ae3 e3^f g3f g3e|d3B G3B e3d c3B|
AE3 E4 A3E c3E|AE3 E3E c4 Bc3|AE3 E3E e3^f g3e|d3B G3B e3d c3B|
AE3 E4 A3E c3E|AE3 E3E c4 Bc3|AE3 E3E e3^f g3e|d3B G3B e3d c3B:|
